X:1
T:Title
%%score { ( 1 4 ) | ( 2 3 ) }
L:1/8
Q:1/4=100
M:6/8
K:D
V:1 treble nm="Grand Piano"
V:4 treble 
V:2 bass 
V:3 bass 
V:1
 F2 F B2 A | D2 D G2 F | [CF]2 [CE] .[G,CE]2 [G,CE] | [CB]2 [CA] F3 | F2 F B2 A | D2 D G2 F | %6
w: J.~Lincoln~Hall * * *||||||
 F2 E EAc | c2 B [CA]3 | e2 d cBA | [Fd]2 [GB] [FA]2 F | B2 B A2 F | G2 F [CE]3 | FEF GFG | %13
w: |||||||
 A2 d dB[B,EG] | [A,DF]2 [DB] [DA]2[K:bass] [F,D] | [A,DF]2 [G,CE] [F,D]3 | z3 B3 | F3 B3 | %18
w: |||||
 F2 F .[DF]2 F | A3 G3 | G3 c3 | G3 c3 | [Gc]2 c .[Gc]2 c | z3 A3 | F3 B3 | F3 B3 | F2 F FEF | %27
w: |||||||||
 A3 G3 | d3 d3 | d3 A3 | A2 A B2 c | d2- [Gd-] [Fd]3 | F3 B3 | F3 B3 | F2 F .[DF]2 F | A3 G3 | %36
w: |||||||||
 G3 c3 | G3 c3 | [Gc]2 c .[Gc]2 c | z3 A3 | F3 B3 | F3 B3 | F2 F FEF | A3 G3 | d3 d3 | d3 A3 | %46
w: ||||||||||
 A2 A B2 c | d2- [Gd-] [Fd]3 |] %48
w: ||
V:2
 [D,A,D]2 [D,A,D] [D,G,D]2 [D,F,D] | [D,F,A,]2 [D,F,A,] [D,B,D]2 [D,A,D] | %2
 [A,,A,]2 [A,,A,] z ^DA,, | [A,,E,]2 [A,,A,] [D,A,D]3 | [D,A,D]2 [D,A,D] [D,G,D]2 [D,F,D] | %5
 [D,F,A,]2 [D,F,A,] [D,B,D]2 [D,A,D] | [E,A,C]2 [E,A,C] [E,A,C]2 [E,A,E] | %7
 [E,^G,E]2 [E,G,D] [A,,A,]3 | z3 .E3 | [D,D]2 [D,D] [D,D]2 [D,A,D] | %10
 [G,D]2 [G,D] [F,A,D]2 [D,A,D] | [E,A,C]2 [D,A,D] [A,,A,]3 | [D,A,D]2 [D,A,D] [E,A,C]2 [E,A,C] | %13
 [F,A,D]2 [F,A,D] [G,B,D]2 G,, | A,,2 [A,,G,] [A,,F,]2 A,, | A,,2 A,, D,3 | z2 D A,,3 | %17
 [D,A,]3 A,,3 | D2 D z ED | [E,A,]3 A,,3 | [E,A,]3 A,,3 | [E,A,]3 A,,3 | z2 G z[K:treble] BG | %23
 [D,^G,]3 [D,A,]3 | [D,A,]3 A,,3 | [D,A,]3 A,,3 | [A,=CD]2 [A,CD] [A,CD]2 [A,CD] | %27
 [F,=CD]2 [F,C] [G,B,D]2 [G,B,] | [^G,B,=F]2 [G,B,] [G,B,F]2 [G,B,] | [A,DF]2 [A,D] [A,DF]2 [A,D] | %30
 [A,CG]2 [A,CG] [A,DG]2 [A,EG] | z2 B, A,3 | [D,A,]3 A,,3 | [D,A,]3 A,,3 | D2 D z ED | %35
 [E,A,]3 A,,3 | [E,A,]3 A,,3 | [E,A,]3 A,,3 | z2 G z[K:treble] BG | [D,^G,]3 [D,A,]3 | %40
 [D,A,]3 A,,3 | [D,A,]3 A,,3 | [A,=CD]2 [A,CD] [A,CD]2 [A,CD] | [F,=CD]2 [F,C] [G,B,D]2 [G,B,] | %44
 [^G,B,=F]2 [G,B,] [G,B,F]2 [G,B,] | [A,DF]2 [A,D] [A,DF]2 [A,D] | [A,CG]2 [A,CG] [A,DG]2 [A,EG] | %47
 z2 B, A,3 |] %48
V:3
 x6 | x6 | z3 .A,,3 | x6 | x6 | x6 | x6 | x6 | [A,CG]2 [A,DG] [A,G]-[A,DG][A,CG] | x6 | x6 | x6 | %12
 x6 | x6 | x6 | x6 | D,3 z3 | x6 | [D,A,]3 A,,3 | x6 | x6 | x6 | [E,A,]3 A,,3[K:treble] | x6 | x6 | %25
 x6 | x6 | x6 | x6 | x6 | x6 | D,6 | x6 | x6 | [D,A,]3 A,,3 | x6 | x6 | x6 | %38
 [E,A,]3 A,,3[K:treble] | x6 | x6 | x6 | x6 | x6 | x6 | x6 | x6 | D,6 |] %48
V:4
 x6 | x6 | x6 | x6 | x6 | x6 | x6 | x6 | x6 | x6 | x6 | x6 | x6 | x6 | x5[K:bass] x | x6 | %16
 [A,F]3 z2 D | z2 D z2 D | x6 | z2 C z2 C | z2 C z2 C | z2 C z2 C | x6 | B2 =F z2 ^F | z2 D z2 D | %25
 z2 D z2 D | x6 | z2 D z2 D | z2 =F z2 F | z2 F z2 F | x6 | .[DF]3 z3 | z2 D z2 D | z2 D z2 D | %34
 x6 | z2 C z2 C | z2 C z2 C | z2 C z2 C | x6 | B2 =F z2 ^F | z2 D z2 D | z2 D z2 D | x6 | %43
 z2 D z2 D | z2 =F z2 F | z2 F z2 F | x6 | .[DF]3 z3 |] %48

